X: 1
T: Miss Admiral Gordon's Strathspey
C: William Marshall (c.1775)
R: strathspey
Z: 2006 John Chambers <jc:trillian.mit.edu>
N: handwritten MS by Barbara McOwen
B: Marshall's Scottish Melodies
B: Marshall's Strathspey Reels (1781)
M: C
L: 1/16
K: A
E2 \
| "A"AAA2 A3A      A3E Af3 | "Bm"ec3     B3A  "E7"F6 E2 \
| "A"AAA2 A3A "F#m"A3E Af3 |  "D"e3f     a3c "C#m"e6 ||
f2  \
| "D"e3f  a3c   "A"ec3 B3A | "Bm"B3c     dcBA "E7"F6 E2 \
| "A"AAA2 A3A "F#m"A3E Af3 |  "A"ec3 "E7"B3c   "A"A6   |]
E2 \
| "A"C3E  A3E   "D"F3E A3E |  "A"c3e      dcBA  "D"F6 "E"E2 \
| "A"C3E  A3E   "D"F3E A3E |  "A"c3d "F#m"efga "E7"e6 ||
g2 \
| "A"a3g  f3e      f3e d3c | "Bm"B3c      dcBA "E7"F6 E2 \
| "A"AAA2 A3A "F#m"A3E Af3 |  "A"ec3  "E7"B3c   "A"A6 |]
